src/assets/img/closeIcon.svg

<svg viewBox="0 0 8 9" xmlns="http://www.w3.org/2000/svg">
<path d="M0.963679 0.66834C0.743224 0.443887 0.385796 0.443887 0.165341 0.66834C-0.0551138 0.892794 -0.0551138 1.2567 0.165341 1.48116L3.20166 4.57255L0.307854 7.51884C0.0873987 7.7433 0.0873991 8.10721 0.307854 8.33166C0.528309 8.55611 0.885737 8.55611 1.10619 8.33166L4 5.38537L6.89381 8.33166C7.11426 8.55611 7.47169 8.55611 7.69215 8.33166C7.9126 8.10721 7.9126 7.7433 7.69215 7.51884L4.79834 4.57255L7.83466 1.48116C8.05511 1.2567 8.05511 0.892794 7.83466 0.66834C7.6142 0.443887 7.25678 0.443887 7.03632 0.66834L4 3.75973L0.963679 0.66834Z"/>
</svg>

<svg viewBox="0 0 8 9" xmlns="http://www.w3.org/2000/svg"><path d="M.96.67a.56.56 0 0 0-.8 0 .58.58 0 0 0 0 .81l3.04 3.1L.3 7.51a.58.58 0 0 0 0 .81c.23.23.59.23.8 0L4 5.4l2.9 2.94c.21.23.57.23.8 0a.58.58 0 0 0 0-.81L4.8 4.57l3.03-3.09a.58.58 0 0 0 0-.81.56.56 0 0 0-.8 0L4 3.76.96.66Z"/></svg>
